!!!COM: Bonelli, Aurelio
!!!CDT:
!!!PTL: Il primo libro delle villanelle a tre voci
!!!PPP: Venice
!!!PPR: Angelo Gardano
!!!PDT: 1596
!!!PUB-format:
!!!RISM: B 3456
!!!rime: 893
!!!OTL: Ben può ritrar le tue fattezze conte
!!!AGN: Madrigal
!!!SCT: Trm0893a
!!!SCA: Trm0893a
!!!original-voices: 3
!!!extant-voices: 2
!!!complete: N
!!!final: F
**kern	**text	**kern	**text
*part2	*part2	*part1	*part1
*staff2	*staff2	*staff1	*staff1
*I"Canto Sec.	*	*I"Canto	*
*I'C Sec.	*	*I'C	*
*oclefC1	*	*oclefC1	*
*clefG2	*	*clefG2	*
*k[b-]	*	*k[b-]	*
*F:	*	*F:	*
*omet(C)	*	*omet(C)	*
*M2/2	*	*M2/2	*
=1	=1	=1	=1
2a	Ben	2cc	Ben
4a	può	4cc	può
4a	ri-	4cc	ri-
=2	=2	=2	=2
2.a	-trar	2.cc	-trar
4a	le	4cc	le
=3	=3	=3	=3
4a	sue	4cc	sue
4a	fa-	4cc	fa-
2f	-tez-	[2dd	-tez-
=4	=4	=4	=4
2g	-ze	2dd]	.
4e	con-	2cc	-ze
[4f	.	.	.
=5	=5	=5	=5
4f]	.	1b-y	con-
8eL	.	.	.
8dJ	.	.	.
2e	.	.	.
=6	=6	=6	=6
2f	-te	2a	-te
2e	Lu-	2g	Lu-
=7	=7	=7	=7
4e	-ci-	4g	-ci-
4e	-do	4g	-do
4.e	spe-	4.g	spe-
8e	-gli’o	8g	-gli’o
=8	=8	=8	=8
4e	più	4g	più
4e	tran-	4g	tran-
4A	-quil-	4f	-quil-
4Bni	-l’hu-	4f	-l’hu-
=9	=9	=9	=9
2c#X	-mo-	2e	-mo-
2c#X	-re,	2e	-re,
=10:|!|:	=10:|!|:	=10:|!|:	=10:|!|:
2.c	Ma	2.a	Ma
4c	non	4a	non
=11	=11	=11	=11
2c	quel-	2a	quel-
4c	-la	4a	-la
4f	bel-	4bnX	bel-
=12	=12	=12	=12
2e	-tà	2cc	-tà
2f	non	2dd	non
=13	=13	=13	=13
4f	quel	4dd	quel
4g	va-	4b-y	va-
2f#X	-lo-	2a	-lo-
=14	=14	=14	=14
2f#X	-re	2a	-re
2b-y	Che	2dd	Che
=15	=15	=15	=15
4b-y	suol	4dd	suol
4b-y	far	4dd	far
[2a	al-	[2cc	al-
=16	=16	=16	=16
4a]	.	4cc]	.
4a	-la	4cc	-la
4a	mor-	4cc	mor-
4a	-t’ol-	4cc	-t’ol-
=17	=17	=17	=17
2f	-trag-	2a	-trag-
4f	-g’ed	2b-y	-g’ed
[4f	on-	.	.
=18	=18	=18	=18
4f]	.	1g	on-
8eL	.	.	.
8dJ	.	.	.
2e	.	.	.
=19	=19	=19	=19
1f	-te;	1a	-te;
=20:|!|:	=20:|!|:	=20:|!|:	=20:|!|:
2.c	Là	2.a	Là
4c	sù	4a	sù
=21	=21	=21	=21
2c	la	2a	la
4c	tua	4a	tua
4c	vir-	4a	vir-
=22	=22	=22	=22
2c	-tu-	2a	-tu-
2c	-t’e	2a	-t’e
=23	=23	=23	=23
2d	la	2b-y	la
4c	tua	2a	tua
[4f	lu-	.	.
=24	=24	=24	=24
4f]	.	1g	lu-
8eL	.	.	.
8dJ	.	.	.
2e	.	.	.
=25	=25	=25	=25
2f	-ce	2f	-ce
=:|!|:	=:|!|:	=:|!|:	=:|!|:
2c	De-	2a	De-
=26	=26	=26	=26
4f	-gn’è	4b-y	-gn’è
4e	sol	4cc	sol
[2f	fiam-	[2dd	fiam-
=27	=27	=27	=27
4f]	.	4dd]	.
4f	-meg-	4dd	-meg-
4f	-giar	4dd	-giar
4f	e in	4dd	e in
=28	=28	=28	=28
2g	sì	2ee-X	sì
4f	bel	2dd	bel
[4b-y	vi-	.	.
=29	=29	=29	=29
4b-]	.	1cc	vi-
8aL	.	.	.
8gJ	.	.	.
2a	.	.	.
=30	=30	=30	=30
4b-y	-so	4b-y	-so
4f	A	4a	A
4f	pe-	4a	pe-
4c	-gn’un	4a	-n’un
=31	=31	=31	=31
4c	rag-	4a	rag-
4f	-gio	4bnX	-gio
4e	qui	4cc	qui
4e	s’a-	4g	s’a-
=32	=32	=32	=32
4e	-dom-	2g	-dom-
4c	-br’e	.	.
[2f	scer-	2a	-br’e
=33	=33	=33	=33
2f]	.	1g	scer-
2e	.	.	.
=34	=34	=34	=34
1fl	-ne:	1fl	-ne:
=:|!	=:|!	=:|!	=:|!
*-	*-	*-	*-
!!!system-decoration: [*]
!!!RDF**kern: i = editorial accidental
!!!RDF**kern: l = terminal long
!!!ENC: Emiliano Ricciardi
!!!END: 2019/01/30
!!!EED: Schleuse, Paul
!!!EEV: 2019/01/30
!!!YEC: Copyright 2018 Emiliano Ricciardi, All Rights Reserved
!!!ONB: Translated from MusicXML on 2019/01/30 and edited by Craig Stuart Sapp
!!@@BEGIN:	VERSEDATA
!!@SOLERTI:	893
!!@CATALOGNUM:	Trm0893
!!@LAST_MODIFIED: 2020/07/12
!!@TITLE:		Ben può ritrar le tue fattezze conte
!!@GENRE:		sonetto
!!@MANUSRC:	E<sub>1</sub>, F<sub>2</sub>, V<sub>5</sub>, V<sub>13/E1</sub>
!!@PRINTSRC:	27, 48, 70, 141, 166, 169
!!@@BEGIN:	VERSES
!!@ABOUTIT:	Loda il signor duca Anna di Joyeuse, signor d'Arca, il quale fu alloggiato dal serenissimo Duca di Ferrara ne le stanze de gli specchi.
!!@ABOUTEN:	He praises sir duke Anne of Joyeuse, reigner of Arca, who was hosted by the most serene Duke of Ferrara in the halls of the mirrors.
!!@EDITOR:	Solerti, Angelo
!!@EDITION_TITLE: Le Rime di Torquato Tasso
!!@EDITION_LOC:	Bologna
!!@EDITION_PUB:	Romagnoli-Dall’Acqua
!!@EDITION_DATE:  1898-1902
!!@EDITION_VOL:	3
!!@EDITION_PAGE:  441
!!@TRANSLATOR:	Emiliano Ricciardi and Amyrose McCue Gill
!!@VERSE:
!!	Ben può ritrar le tue fattezze conte
!!	Lucido specchio o ver tranquillo umore,
!!	Ma non quella beltà né quell valore
!!	Che suol fare a la morte oltraggi ed onte;
!!@VERSE:
!!	Perché degno non è cristallo o fonte
!!	D'immortal forma o di celeste onore,
!!	Ma specchio sol d'angelico splendore
!!	Dove il primo amator mirò la fronte.
!!@VERSE:
!!	Là su la tua virtute e la tua luce
!!	Si vedrà fiammeggiare, e 'n sì bel viso
!!	Appena un raggio ora s'adombra e scerne:
!!@VERSE:
!!	E mentre a gli occhi altrui vago traluce
!!	Non divieni, signor, novo Narciso,
!!	Anzi ti volgi a le bellezze eterne.
!!@TVERSE:
!!	Well can a clear mirror or truly tranquil waters
!!	Depict the features of your countenance
!!	But not that beauty nor that valor
!!	Which is wont to bring offense and disgrace to death;
!!@TVERSE:
!!	Because no crystal or fountain is worthy
!!	Of an immortal form or of heavenly honor,
!!	But only a reflection of angelic splendor
!!	Where the first lover saw the face.
!!@TVERSE:
!!	Up there one will see your virtue and your light
!!	Glowing, and in such a beautiful face
!!	Suddenly a ray now obscures and reveals:
!!@TVERSE:
!!	And while to others’ eyes loveliness shines through
!!	You do not become, sir, a new Narcissus,
!!	Instead, you turn yourself towards eternal beauties.
!!@@END:		VERSES
!!@OTHER_CRIT_ED:   None
!!@ATTRIBUTION_ABOUT:	Secure
!!	<br>
!!	Among other sources, this sonnet appears in the authoritative manuscript It. 385, Biblioteca Estense Universitaria, Modena, Italy (see Literary Sources).
!!@DATING:	July 1581
!!@DEDICATEE:	Joyeuse, Anne de
!!@DEDICATEE_INFO:	(1560 or 1561-1587)
!!@COMMENTARY:
!!@@END:		VERSEDATA
!!@@BEGIN:	SETTING
!!@CATALOGNUM:	Trm0893a
!!@RIMETITLE:	Ben può ritrar le tue fattezze conte
!!@SETTINGTITLE:: Ben può ritrar le sue fatezze conte
!!@SOLERTI:	893
!!@COMPOSER:	Bonelli, Aurelio
!!@PRINCEPSTITLE:	Il primo libro delle villanelle a tre voci
!!@PRINCEPSLOC:	Venetia
!!@NORMLOC:	Venice
!!@NORMPUB:	Angelo Gardano
!!@NORMPUBSHORT:	Gardano
!!@PRINCEPSPUB:	Gardano
!!@PRINCEPSYEAR:	1596
!!@PRINCEPSRISM:	B 3456
!!@REPRINTS:	
!!@OVOICES:	3
!!@EXTANTVOICES:	2
!!@PARTBOOKS:	
!!@EXTPARTBOOKS:	
!!@OCLEFS:	C1,C1
!!@OMENSURATION:	C
!!@OKEYSIG:	-
!!@FINAL:	F
!!@TIMPEDITOR:	Schleuse, Paul
!!@NOTE:		
!!@@END:		SETTING
